X:1
T:Musical Offering Canon a 2 Violin in unisono (A = 415 Hz)
T:BWV 1079
T:J. S. Bach
%%score 1 { 2 | 3 }
L:1/8
M:4/4
K:D
V:1 treble nm="Harp"
V:2 treble nm="Harp"
V:3 bass 
V:1
 z2 f2 B3 c/d/ | c/B/^A/^G/ FE DC C/4B,/4C/4B,/4C/4B,/4^A,/4B,/4 | C4- CEDC | CcB^A Agfe | %4
 f4- f^ABG | Fdec dfge | f3 ^A Bbc^a | bB,DF B2 z2 | z2 f2 B3 c/d/ | %9
 c/B/^A/^G/ FE DC C/4B,/4C/4B,/4C/4B,/4^A,/4B,/4 | C4- CEDC | CcB^A Agfe | f4- f^ABG | Fdec dfge | %14
 f2- f^A Bbc^a | bB,DF B2 z2 | z2 f2 B3 c/d/ | c/B/^A/^G/ FE DC C/4B,/4C/4B,/4C/4B,/4^A,/4B,/4 | %18
 C4- CEDC | CcB^A Agfe | f4- f^ABG | Fdec dfge | f3 ^A Bbc^a | bB,DF B2 z2 | z2 f2 B3 c/d/ | %25
 c/B/^A/^G/ FE DC C/4B,/4C/4B,/4C/4B,/4^A,/4B,/4 | C4- CEDC | CcB^A Agfe | f4- f^ABG | Fdec dfge | %30
 f2- f^A Bbc^a | bB,DF !fermata!B2 z2 | z8 |] %33
V:2
 z8 | z2 f2 B3 c/d/ | c/B/^A/^G/ FE DC C/4B,/4C/4B,/4C/4B,/4^A,/4B,/4 | C4- CEDC | CcB^A Agfe | %5
 f4- f^ABG | Fdec dfge | f3 ^A Bbc^a | bB,DF B2 z2 | z2 f2 B3 c/d/ | %10
 c/B/^A/^G/ FE DC C/4B,/4C/4B,/4C/4B,/4^A,/4B,/4 | C4- CEDC | CcB^A Agfe | f4- f^ABG | Fdec dfge | %15
 f3 ^A Bbc^a | bB,DF B2 z2 | z2 f2 B2- Bc/d/ | c/B/^A/^G/ FE DC C/4B,/4C/4B,/4C/4B,/4^A,/4B,/4 | %19
 C4- CEDC | CcB^A Agfe | f4- f^ABG | Fdec dfge | f3 ^A Bbc^a | bB,DF B2 z2 | z2 f2 B3 c/d/ | %26
 c/B/^A/^G/ FE DC C/4B,/4C/4B,/4C/4B,/4^A,/4B,/4 | C4- CEDC | CcB^A Agfe | f4- f^ABG | Fdec dfge | %31
 f3 ^A Bbc^a | bB,DF !fermata!B2 z2 |] %33
V:3
 B,,4 D,4 | F,4 G,4 | ^A,,4 z2 F,2 | =F,4 E,4 | ^D,4 =D,4- | D,2 C,2 =C,2 B,,2 | %6
 ^A,,2 F,,2 B,,2 E,2- | E,2 D,4 C,2 | B,,4 D,4 | F,4 G,4 | ^A,,4 z2 F,2 | =F,4 E,4 | ^D,4 =D,4- | %13
 D,2 C,2 =C,2 B,,2 | ^A,,2 F,,2 B,,2 E,2- | E,2 D,4 C,2 | B,,4 D,4 | F,4 G,4 | ^A,,4 z2 F,2 | %19
 =F,4 E,4 | ^D,4 =D,4- | D,2 C,2 =C,2 B,,2 | ^A,,2 F,,2 B,,2 E,2- | E,2 D,4 C,2 | B,,4 D,4 | %25
 F,4 G,4 | ^A,,4 z2 F,2 | =F,4 E,4 | ^D,4 =D,4- | D,2 C,2 =C,2 B,,2 | ^A,,2 F,,2 B,,2 E,2- | %31
 E,2 D,4 C,2 | !fermata!B,,6 z2 |] %33

